dist/img/icons/chat.svg

<svg width="24" height="26" viewBox="0 0 24 26" fill="none" xmlns="http://www.w3.org/2000/svg">
<path d="M23.2008 25.6C23.2008 25.6 19.4298 24.116 16.379 22.9273H3.55077C2.03216 22.9273 0.800781 21.6218 0.800781 20.0115V2.91582C0.800781 1.30558 2.03216 0 3.55077 0H20.45C21.9686 0 23.2 1.30558 23.2 2.91582V17.6393L23.2008 25.6ZM19.8899 16.0145C19.6255 15.6884 19.164 15.6507 18.8562 15.93C18.8322 15.9514 16.4438 18.0753 12 18.0753C7.61135 18.0753 5.18621 15.9667 5.143 15.9283C4.83514 15.6504 4.37487 15.6884 4.11085 16.0137C3.98409 16.17 3.92114 16.3738 3.93602 16.5799C3.95089 16.786 4.04235 16.9772 4.19007 17.111C4.30368 17.2134 7.02007 19.631 12 19.631C16.9807 19.631 19.6971 17.2134 19.8107 17.111C19.9582 16.9773 20.0495 16.7862 20.0643 16.5804C20.0792 16.3745 20.0164 16.1708 19.8899 16.0145Z" fill="white"/>
<path d="M23.2008 25.6C23.2008 25.6 19.4298 24.116 16.379 22.9273H3.55077C2.03216 22.9273 0.800781 21.6218 0.800781 20.0115V2.91582C0.800781 1.30558 2.03216 0 3.55077 0H20.45C21.9686 0 23.2 1.30558 23.2 2.91582V17.6393L23.2008 25.6ZM19.8899 16.0145C19.6255 15.6884 19.164 15.6507 18.8562 15.93C18.8322 15.9514 16.4438 18.0753 12 18.0753C7.61135 18.0753 5.18621 15.9667 5.143 15.9283C4.83514 15.6504 4.37487 15.6884 4.11085 16.0137C3.98409 16.17 3.92114 16.3738 3.93602 16.5799C3.95089 16.786 4.04235 16.9772 4.19007 17.111C4.30368 17.2134 7.02007 19.631 12 19.631C16.9807 19.631 19.6971 17.2134 19.8107 17.111C19.9582 16.9773 20.0495 16.7862 20.0643 16.5804C20.0792 16.3745 20.0164 16.1708 19.8899 16.0145Z" fill="white"/>
</svg>

<svg width="24" height="26" viewBox="0 0 24 26" fill="none" xmlns="http://www.w3.org/2000/svg"><path d="M23.2 25.6s-3.77-1.484-6.821-2.673H3.551c-1.519 0-2.75-1.305-2.75-2.915V2.916C.8 1.306 2.032 0 3.55 0h16.9c1.519 0 2.75 1.306 2.75 2.916V25.6zm-3.31-9.585a.705.705 0 00-1.034-.085c-.024.021-2.412 2.145-6.856 2.145-4.389 0-6.814-2.108-6.857-2.147a.705.705 0 00-1.032.086.808.808 0 00.08 1.097c.113.102 2.83 2.52 7.809 2.52 4.98 0 7.697-2.418 7.81-2.52a.809.809 0 00.08-1.096z" fill="#fff"/><path d="M23.2 25.6s-3.77-1.484-6.821-2.673H3.551c-1.519 0-2.75-1.305-2.75-2.915V2.916C.8 1.306 2.032 0 3.55 0h16.9c1.519 0 2.75 1.306 2.75 2.916V25.6zm-3.31-9.585a.705.705 0 00-1.034-.085c-.024.021-2.412 2.145-6.856 2.145-4.389 0-6.814-2.108-6.857-2.147a.705.705 0 00-1.032.086.808.808 0 00.08 1.097c.113.102 2.83 2.52 7.809 2.52 4.98 0 7.697-2.418 7.81-2.52a.809.809 0 00.08-1.096z" fill="#fff"/></svg>
